X:1
T:The Flower Of Scotland
R:SLOW MARCH
U:z="@ "
L:1/8
M:6/8
Q:48
K:HP
P:A
 ||f|{g}f2 e {Gdc}d3|{e}A3- A2 {g}A|{Gdc}d2 f {gef}e3|{G}e2 d {g}d2 e|
{gfg}f3- f2 {g}f|g{a}fg {ag}a3|{Gdc}d2 {e}A {gef}e2 {G}e|{g}ede {g}f2 g||
M:C
Q:48
P:B
 ||\
M:6/8
Q:48
{afg}f2 e {Gdc}d3|{e}A3- A2 f|{gf}g>{a}fg {ag}a3|{Gdc}d3- d2 f|
{gf}gfe {gfg}f2 e|{Gdc}d3- d2 {c}d|{g}e2 {g}e {Gdc}d3-|d3 {gdc}d2|]

